packages/axiom-materials/src/icon_svgs/analytics-alert.svg

<svg height="16" viewBox="0 0 16 16" width="16" xmlns="http://www.w3.org/2000/svg"><path d="m13.9996742 7.99967416c0 3.31350004-2.6865 6.00000004-6.00000004 6.00000004-3.3135 0-6-2.6865-6-6.00000004 0-3.3135 2.6865-6 6-6 3.31350004 0 6.00000004 2.6865 6.00000004 6zm-5.00000004 2.99999974c0-.5518043-.44819547-.99999974-.99999976-.99999974s-.99999976.44819544-.99999976.99999974.44819547.9999998.99999976.9999998.99999976-.4481955.99999976-.9999998zm-1.99967416-6.9996739.3 4.99967416h1.4l.3-4.99967416z" fill-rule="evenodd"/></svg>

<svg xmlns="http://www.w3.org/2000/svg" width="16" height="16" viewBox="0 0 16 16">
  <path fill-rule="evenodd" d="M13.9996742,7.99967416 C13.9996742,11.3131742 11.3131742,13.9996742 7.99967416,13.9996742 C4.68617416,13.9996742 1.99967416,11.3131742 1.99967416,7.99967416 C1.99967416,4.68617416 4.68617416,1.99967416 7.99967416,1.99967416 C11.3131742,1.99967416 13.9996742,4.68617416 13.9996742,7.99967416 Z M8.99967416,10.9996739 C8.99967416,10.4478696 8.55147869,9.99967416 7.9996744,9.99967416 C7.44787011,9.99967416 6.99967464,10.4478696 6.99967464,10.9996739 C6.99967464,11.5514782 7.44787011,11.9996737 7.9996744,11.9996737 C8.55147869,11.9996737 8.99967416,11.5514782 8.99967416,10.9996739 Z M7,4 L7.3,8.99967416 L8.7,8.99967416 L9,4 L7,4 Z"/>
</svg>
